X: 37349
T: Slaney Bog, The
R: reel
M: 4/4
K: Dmajor
|:A3 G FGAB|=cAFA G2 FG|A/B/=c AG FGAg|fdec dfec|
AFAF FGAB|=cAFA G2FG|A/B/=c AF FGAg|1 fdec d2 z2:|2 fdec d2 de||
|:f2 gf gfed|cAAB cdeg|fdfa g2 fg|a/g/f g/f/e fddf|a/g/f g/f/e fdec|
dfed dAGE|Dddc defg|1 a/g/f g/f/e dfec:|2 a/g/f g/f/e d2||

